icons/unocss-light.svg

<svg width="256" height="256" viewBox="0 0 256 256" fill="none" xmlns="http://www.w3.org/2000/svg">
<rect width="256" height="256" rx="60" fill="#F4F2ED"/>
<path d="M134.429 177.994C134.429 154.145 153.762 134.812 177.611 134.812C201.459 134.812 220.793 154.145 220.793 177.994C220.793 201.843 201.459 221.176 177.611 221.176C153.762 221.176 134.429 201.843 134.429 177.994Z" fill="#858585"/>
<path d="M134.429 78.7727C134.429 54.9241 153.762 35.5909 177.611 35.5909C201.459 35.5909 220.793 54.9241 220.793 78.7727V117.636C220.793 120.021 218.859 121.955 216.474 121.955H138.747C136.363 121.955 134.429 120.021 134.429 117.636V78.7727Z" fill="#CCCCCC"/>
<path d="M121.091 177.994C121.091 201.843 101.758 221.176 77.9091 221.176C54.0605 221.176 34.7273 201.843 34.7273 177.994L34.7273 139.131C34.7273 136.745 36.6606 134.812 39.0455 134.812H116.773C119.158 134.812 121.091 136.745 121.091 139.131V177.994Z" fill="#4D4D4D"/>
</svg>

<svg xmlns="http://www.w3.org/2000/svg" width="256" height="256" fill="none"><rect width="256" height="256" fill="#F4F2ED" rx="60"/><path fill="#858585" d="M134.429 177.994c0-23.849 19.333-43.182 43.182-43.182 23.848 0 43.182 19.333 43.182 43.182s-19.334 43.182-43.182 43.182-43.182-19.333-43.182-43.182"/><path fill="#CCC" d="M134.429 78.773c0-23.849 19.333-43.182 43.182-43.182 23.848 0 43.182 19.333 43.182 43.182v38.863a4.32 4.32 0 0 1-4.319 4.319h-77.727a4.32 4.32 0 0 1-4.318-4.319z"/><path fill="#4D4D4D" d="M121.091 177.994c0 23.849-19.333 43.182-43.182 43.182s-43.182-19.333-43.182-43.182v-38.863a4.32 4.32 0 0 1 4.319-4.319h77.727a4.32 4.32 0 0 1 4.318 4.319z"/></svg>
